X:4306
T:Mit Schwung - Rheinlnder - schottisch/schottische/scottish
O:england
B:nach: Alt Egerlnder Tnze, E. Baumann
N:please mail errors to: simon.wascher@chello.at
M:2/4
L:1/16
K:G
Bd^cd edcd|gdBGD4|B2B2 A3G|G2F2F4|
AcBc dcBc|fdcAF4|c2c2 B3A|A2G2G4|
Bd^cd edcd|gdBGD4|B2B2 A3G|G2F2F4|
AcBc f2e2|DGFG e2d2|DDEF B2A2|G2G2G4:|
|:BAGF AGFE|edBed4|d2B2 e3B|dcAFD4|
cBA^G BA=GF|AGFEc4|e2c2 c3c|edBGD4|
BAGF AGFE|edBed4|d2B2 g3f|feefe4|
ecAc f2e2|dBGB e2d2|cAFD E2F2|G2G2G4:|
K:C
|:e2e2 e3B|d2c2G4|E2G2c3d|c2B2F4|
f2f2 f3B|e2d2F4|F2G2B3e|d2c2G4|
e2e2e3B|d2c2G4|E2G2 c3B|B2A2A4|
A2FAB2A2|A2G2G4|G2BAGFED|C2c2c4:|
